X: 80
T:Quadrille,A. WI.080
M:6/8
Q:120
C:"by Wm. Irwin"
S:Wm Irwin, Folio MS, c1850. AGG's Transcription
R:Quadrille
O:England
A:Lake District
Z:vmp.Chris Partington.2005
K:Eb
((3B/c/d/)|e2E G2E|BcB BGE|A2fG2e|F2G AGF|!
e2E G2E|BcB Bcd|eBG BAF|E2G E2:|!
|e|g3 e3|B2g- gfe|f3 d3|Bdf fga|!
g3 e3|B2g- gfe|gfe Bcd|e2g e3|!
g3 e3|Bba gfe|f3 d3|Bdf fga|!
gfe fed|edc BAG|ABc Bcd|e3 E2|]
